X:127
T:Devil's Dream
C:Traditional
N:
R:bluegrass
L:1/8
Q:1/4=115
M:2/4
K:A
z3e |: "A"a/g/a/e/ a/g/a/e/ | a/g/a/e/ f/e/d/c/ | "Bm"d/f/B/f/ d/f/B/f/ | d/f/B/f/ a/g/f/e/ | 
"A"a/g/a/e/ a/g/a/e/ | a/g/a/e/ f/e/d/c/ | "D"d/f/e/d/ "A"c/B/A/F/ | "E7"E/A/G/B/ "A"Ae :|: "A"c/e/A/e/ c/e/A/e/ | 
c/e/A/e/ f/e/d/c/ | "Bm"d/f/B/f/ d/f/B/f/ | d/f/B/f/ a/g/f/e/ | "A"c/e/A/e/ c/e/A/e/ | 
c/e/A/e/ f/e/d/c/ | "D"d/f/e/d/ "A"c/B/A/F/ |1 E/"E7"A/G/B/ "A"Ae :|2 E/"E7"A/G/B/ "A"A2 | 


